X: 2
I: linebreak $
T: Turkelone
T: for couples
N: FIXME EXTRA JUNK
C: Willoughby Lute Book, c.1585
P: AA BB CC D x 4
K: G dorian
M: 6/4
L: 1/8
P: A
"D"^F3/F/FF3/G/F "Gm"G2"D"F"Gm"G2"D"A | "Bb"B2B"F"A3/B/A "Bb"B3/B/BB/B/"F"A2 | "Gm"G3/G/G"D"^F3/G/F "G"G3/G/GGGG :: 
P: B
"Gm"G3/G/G"D"^F3/G/F "Gm"G3/G/G"D"F2F :: 
P: C
"Gm"G3/G/G"Dm"A3/B/A "Bb"B3/B/BBB"F"A | "Gm"G3/G/G"D"^F3/E/F "G"G3/G/GGGG :| 
P: D
"C"E3/E/EEEE "C"E3/E/EE2E | "F"F3/E/F"C"E3/D/E "D"^F3/E/F/G/FFF |: DEDDCA, G,2A,G,2D | F2FC2C D2DD2F | DCB,A,B,A, G,2=B,DG,2 :: D2B,D2A, G,3/A,/B,D2D :: 
B,DB,A,DA, F,2B,D2C | B,3A,3 G,3/A,/=B,G,3 :| C4A,G, C4A,G, | F,3G,3 A,6 |: A,2A,A,CD DB,DDB,D | D2B,F,3 D,2F,F,2A, | 
B,2B,A,2A, =B,3=B,3 :: B,3A,3 G,3A,3 :: G,2G,F,2F, D,2D,F,2F, | G,2G,D,2D, D,2D,D,3 :| G,2G,G,2G, G,2G,G,2G, | A,3C3 D6 |: 
D,2D,D,2a''' g'''2a'''D,2D, | b'''2b'''f'''2f''' b'''2b'''b'''2C, | D,2D,D,2D, g'''2g'''g'''3 :: D,2D,a'''2a''' g'''2g'''D,2D, :: g'''2g'''D,2D, b'''2b'''b'''2C, | D,2D,D,2a''' g'''3g'''3 :| 
C,2C,C,2C, C,2C,C,2a''' | f'''3C,3 D,6 | 

